!!! OTL: Berkowitz56
!!! Chapter: 1
!!! Section: I
!!! Page: 16
!!! Mode: 
!!! Encoder: DJB
**kern
*staff1
*I"Piano
=1-
*clefC3
*k[f#c#]
*D:
*M3/4
2d\
4f#\
=2
4.a\
8b\
4a\
=3
8b\L
8cc#\J
4dd\
8cc#\L
8b\J
=4
4.a\
8b\
4a\
=5
8g\L
8a\J
4b\
8a\L
8g\J
=6
8f#\L
8g\J
4a\
8g\L
8f#\J
=7
4.e\
8g\
8f#\L
8e\J
=8
2.d\
==
*-
